src/cards/Simple_c_a.svg

<?xml version="1.0" encoding="UTF-8" standalone="no"?>
<!-- Created with Inkscape (http://www.inkscape.org/) --><svg height="190.00000" id="svg2" inkscape:version="0.41+cvs" sodipodi:docbase="/home/nicu/Desktop/card_nicu_buculei_01.zip_FILES/cards/simple" sodipodi:docname="simple_c_a.svg" sodipodi:version="0.32" version="1.0" width="140.00000" x="0.0000000" xmlns="http://www.w3.org/2000/svg" xmlns:cc="http://web.resource.org/cc/" xmlns:dc="http://purl.org/dc/elements/1.1/" xmlns:inkscape="http://www.inkscape.org/namespaces/inkscape" xmlns:rdf="http://www.w3.org/1999/02/22-rdf-syntax-ns#" xmlns:sodipodi="http://inkscape.sourceforge.net/DTD/sodipodi-0.dtd" xmlns:svg="http://www.w3.org/2000/svg" xmlns:xlink="http://www.w3.org/1999/xlink" y="0.0000000">
  <metadata>
    <rdf:RDF xmlns:cc="http://web.resource.org/cc/" xmlns:dc="http://purl.org/dc/elements/1.1/" xmlns:rdf="http://www.w3.org/1999/02/22-rdf-syntax-ns#">
      <cc:Work rdf:about="">
        <dc:title>card</dc:title>
        <dc:description></dc:description>
        <dc:subject>
          <rdf:Bag>
            <rdf:li>card</rdf:li>
            <rdf:li>simple</rdf:li>
          </rdf:Bag>
        </dc:subject>
        <dc:publisher>
          <cc:Agent rdf:about="http://www.openclipart.org/">
            <dc:title>Open Clip Art Library</dc:title>
          </cc:Agent>
        </dc:publisher>
        <dc:creator>
          <cc:Agent>
            <dc:title>Nicu Buculei</dc:title>
          </cc:Agent>
        </dc:creator>
        <dc:rights>
          <cc:Agent>
            <dc:title>Nicu Buculei</dc:title>
          </cc:Agent>
        </dc:rights>
        <dc:date></dc:date>
        <dc:format>image/svg+xml</dc:format>
        <dc:type rdf:resource="http://purl.org/dc/dcmitype/StillImage"/>
        <cc:license rdf:resource="http://web.resource.org/cc/PublicDomain"/>
        <dc:language>en</dc:language>
      </cc:Work>
      <cc:License rdf:about="http://web.resource.org/cc/PublicDomain">
        <cc:permits rdf:resource="http://web.resource.org/cc/Reproduction"/>
        <cc:permits rdf:resource="http://web.resource.org/cc/Distribution"/>
        <cc:permits rdf:resource="http://web.resource.org/cc/DerivativeWorks"/>
      </cc:License>
    </rdf:RDF>
  </metadata>
  <sodipodi:namedview bordercolor="#666666" borderopacity="1.0" id="base" inkscape:current-layer="svg2" inkscape:cx="70.000000" inkscape:cy="95.000000" inkscape:pageopacity="0.0" inkscape:pageshadow="2" inkscape:window-height="791" inkscape:window-width="1152" inkscape:window-x="0" inkscape:window-y="26" inkscape:zoom="1.0000000" pagecolor="#ffffff"/>
  <defs id="defs3">
    <linearGradient id="linearGradient2060">
      <stop id="stop2062" offset="0.0000000" style="stop-color:#ebf0d0;stop-opacity:1.0000000;"/>
      <stop id="stop2064" offset="1.0000000" style="stop-color:#ffffeb;stop-opacity:1.0000000;"/>
    </linearGradient>
    <linearGradient gradientTransform="translate(0.000000,-1.000000)" gradientUnits="userSpaceOnUse" id="linearGradient4853" x1="2.0000000" x2="109.00000" xlink:href="#linearGradient2060" y1="63.099518" y2="128.69501"/>
  </defs>
  <g id="g5630">
    <path d="M 21.000000,5.0000000 L 124.00000,5.0000000 C 132.86400,5.0000000 140.00000,12.136000 140.00000,21.000000 L 140.00000,174.00000 C 140.00000,182.86400 132.86400,190.00000 124.00000,190.00000 L 21.000000,190.00000 C 12.136000,190.00000 5.0000000,182.86400 5.0000000,174.00000 L 5.0000000,21.000000 C 5.0000000,12.136000 12.136000,5.0000000 21.000000,5.0000000 z " id="rect2070" style="fill:#000000;fill-opacity:0.49803922;stroke:none;stroke-width:0.20000000;stroke-miterlimit:4.0000000;stroke-dashoffset:0.0000000;stroke-opacity:1.0000000"/>
    <path d="M 17.000000,1.0000000 L 120.00000,1.0000000 C 128.86400,1.0000000 136.00000,8.1360000 136.00000,17.000000 L 136.00000,170.00000 C 136.00000,178.86400 128.86400,186.00000 120.00000,186.00000 L 17.000000,186.00000 C 8.1360000,186.00000 1.0000000,178.86400 1.0000000,170.00000 L 1.0000000,17.000000 C 1.0000000,8.1360000 8.1360000,1.0000000 17.000000,1.0000000 z " id="rect1300" style="fill:#ffffff;fill-opacity:1.0000000;stroke:none;stroke-width:0.20000000;stroke-miterlimit:4.0000000;stroke-dashoffset:0.0000000;stroke-opacity:1.0000000"/>
    <path d="M 19.000000,3.0000000 L 122.00000,3.0000000 C 130.86400,3.0000000 138.00000,10.136000 138.00000,19.000000 L 138.00000,172.00000 C 138.00000,180.86400 130.86400,188.00000 122.00000,188.00000 L 19.000000,188.00000 C 10.136000,188.00000 3.0000000,180.86400 3.0000000,172.00000 L 3.0000000,19.000000 C 3.0000000,10.136000 10.136000,3.0000000 19.000000,3.0000000 z " id="path5624" style="fill:#c7891f;fill-opacity:1.0000000;stroke:none;stroke-width:0.20000000;stroke-miterlimit:4.0000000;stroke-dashoffset:0.0000000;stroke-opacity:1.0000000"/>
    <path d="M 18.000000,1.9999995 L 121.00000,1.9999995 C 129.86400,1.9999995 137.00000,9.1359995 137.00000,18.000000 L 137.00000,171.00000 C 137.00000,179.86400 129.86400,187.00000 121.00000,187.00000 L 18.000000,187.00000 C 9.1360000,187.00000 2.0000000,179.86400 2.0000000,171.00000 L 2.0000000,18.000000 C 2.0000000,9.1359995 9.1360000,1.9999995 18.000000,1.9999995 z " id="rect1306" style="fill:url(#linearGradient4853);fill-opacity:1.0000000;stroke:none;stroke-width:0.20000000;stroke-miterlimit:4.0000000;stroke-dashoffset:0.0000000;stroke-opacity:1.0000000"/>
  </g>
  <path d="M 25.078906,36.774534 L 15.077649,36.774534 L 13.499377,42.240029 L 7.0699976,42.240029 L 16.257199,12.240088 L 23.882742,12.240088 L 33.069943,42.240029 L 26.640564,42.240029 L 25.078906,36.774534 M 16.672534,31.208571 L 23.467407,31.208571 L 20.078278,19.272894 L 16.672534,31.208571" id="text1481" style="font-size:37.418766;font-style:normal;font-variant:normal;font-weight:bold;font-stretch:normal;fill:#000000;fill-opacity:1.0000000;stroke:none;stroke-width:1.0000000px;stroke-linecap:butt;stroke-linejoin:miter;stroke-opacity:1.0000000;font-family:Bitstream Vera Sans;text-anchor:start;writing-mode:lr-tb"/>
  <path d="M 113.61105,152.09552 L 123.61231,152.09552 L 125.19057,146.63002 L 131.61996,146.63002 L 122.43276,176.62997 L 114.80721,176.62997 L 105.62001,146.63002 L 112.04939,146.63002 L 113.61105,152.09552 M 122.01742,157.66148 L 115.22255,157.66148 L 118.61168,169.59716 L 122.01742,157.66148" id="text4064" style="font-size:37.418766;font-style:normal;font-variant:normal;font-weight:bold;font-stretch:normal;fill:#000000;fill-opacity:1.0000000;stroke:none;stroke-width:1.0000000px;stroke-linecap:butt;stroke-linejoin:miter;stroke-opacity:1.0000000;font-family:Bitstream Vera Sans;text-anchor:start;writing-mode:lr-tb"/>
  <path d="M 20.527261,48.665000 C 17.860877,48.665000 15.697394,51.928523 15.697394,55.950664 C 15.697394,59.377240 20.089490,65.142330 19.918919,67.880240 C 18.508668,68.662660 14.151660,61.442720 11.899866,61.442720 C 9.2334820,61.442720 7.0700000,64.706240 7.0700000,68.728380 C 7.0700000,72.750530 9.2334820,76.014050 11.899866,76.014050 C 14.212394,76.014050 18.175527,68.800060 19.918919,69.451390 L 16.990005,82.325000 L 24.013589,82.283290 C 24.013589,82.283290 20.936644,69.802100 20.932822,69.507000 L 20.988126,69.507000 L 20.988126,69.520910 C 22.695429,68.881200 26.793987,76.153080 29.090134,76.153090 C 31.756521,76.153090 33.920003,72.889570 33.920000,68.867420 C 33.920000,64.845280 31.756521,61.581760 29.090134,61.581760 C 26.847510,61.581760 22.782426,68.682290 20.997343,67.949760 C 21.022420,65.144330 25.357127,59.373473 25.357127,55.950664 C 25.357127,51.928523 23.193647,48.665000 20.527261,48.665000 z " id="path908" sodipodi:nodetypes="cscsssccccccssscsc" style="fill:#000000;fill-opacity:1.0000000;fill-rule:evenodd;stroke:none;stroke-width:1.0000000pt;stroke-linecap:butt;stroke-linejoin:miter;stroke-opacity:1.0000000"/>
  <path d="M 117.41824,139.96250 C 120.08462,139.96250 122.24811,136.69898 122.24811,132.67684 C 122.24811,129.25026 117.85601,123.48517 118.02658,120.74726 C 119.43683,119.96484 123.79384,127.18478 126.04563,127.18478 C 128.71202,127.18478 130.87550,123.92126 130.87550,119.89912 C 130.87550,115.87697 128.71202,112.61345 126.04563,112.61345 C 123.73311,112.61345 119.76997,119.82744 118.02658,119.17611 L 120.95550,106.30250 L 113.93191,106.34421 C 113.93191,106.34421 117.00886,118.82540 117.01268,119.12050 L 116.95737,119.12050 L 116.95737,119.10659 C 115.25007,119.74630 111.15151,112.47442 108.85537,112.47441 C 106.18898,112.47441 104.02550,115.73793 104.02550,119.76008 C 104.02550,123.78222 106.18898,127.04574 108.85537,127.04574 C 111.09799,127.04574 115.16307,119.94521 116.94816,120.67774 C 116.92308,123.48317 112.58837,129.25403 112.58837,132.67684 C 112.58837,136.69898 114.75185,139.96250 117.41824,139.96250 z " id="path4052" sodipodi:nodetypes="cscsssccccccssscsc" style="fill:#000000;fill-opacity:1.0000000;fill-rule:evenodd;stroke:none;stroke-width:1.0000000pt;stroke-linecap:butt;stroke-linejoin:miter;stroke-opacity:1.0000000"/>
  <path d="M 69.529280,59.050000 C 63.803258,59.050000 59.157208,66.062793 59.157208,74.705728 C 59.157208,82.068904 68.589173,94.457168 68.222874,100.34050 C 65.194380,102.02180 55.837766,86.507293 51.002070,86.507293 C 45.276047,86.507293 40.630000,93.520080 40.630000,102.16302 C 40.630000,110.80598 45.276047,117.81877 51.002070,117.81877 C 55.968191,117.81877 64.478964,102.31705 68.222874,103.71665 L 61.933072,131.38000 L 77.016121,131.29037 C 77.016121,131.29037 70.408424,104.47027 70.400217,103.83615 L 70.518981,103.83615 L 70.518981,103.86604 C 74.185390,102.49141 82.986987,118.11752 87.917930,118.11754 C 93.643959,118.11754 98.290006,111.10476 98.290000,102.46180 C 98.290000,93.818855 93.643959,86.806068 87.917930,86.806068 C 83.101927,86.806068 74.372215,102.06398 70.538775,100.48989 C 70.592627,94.461466 79.901350,82.060803 79.901350,74.705728 C 79.901350,66.062793 75.255307,59.050000 69.529280,59.050000 z " id="path4078" sodipodi:nodetypes="cscsssccccccssscsc" style="fill:#000000;fill-opacity:1.0000000;fill-rule:evenodd;stroke:none;stroke-width:1.0000000pt;stroke-linecap:butt;stroke-linejoin:miter;stroke-opacity:1.0000000"/>
</svg>

<?xml version="1.0" encoding="UTF-8" standalone="no"?>
<svg xmlns:rdf="http://www.w3.org/1999/02/22-rdf-syntax-ns#" xmlns="http://www.w3.org/2000/svg" sodipodi:docname="simple_c_a.svg" height="190" sodipodi:version="0.32" width="140" version="1.0" xmlns:xlink="http://www.w3.org/1999/xlink" y="0" x="0" xmlns:cc="http://web.resource.org/cc/" xmlns:dc="http://purl.org/dc/elements/1.1/" sodipodi:docbase="/home/nicu/Desktop/card_nicu_buculei_01.zip_FILES/cards/simple" xmlns:sodipodi="http://inkscape.sourceforge.net/DTD/sodipodi-0.dtd">
 <sodipodi:namedview bordercolor="#666666" pagecolor="#ffffff" borderopacity="1.0"/>
 <defs>
  <linearGradient id="a" y2="128.7" gradientUnits="userSpaceOnUse" y1="63.1" gradientTransform="translate(0 -1)" x2="109" x1="2">
   <stop stop-color="#ebf0d0" offset="0"/>
   <stop stop-color="#ffffeb" offset="1"/>
  </linearGradient>
 </defs>
 <path fill-opacity=".49804" d="m21 5h103c8.86 0 16 7.136 16 16v153c0 8.86-7.14 16-16 16h-103c-8.864 0-16-7.14-16-16v-153c0-8.864 7.136-16 16-16z"/>
 <g>
  <path fill="#fff" d="m17 1h103c8.86 0 16 7.136 16 16v153c0 8.86-7.14 16-16 16h-103c-8.864 0-16-7.14-16-16v-153c0-8.864 7.136-16 16-16z"/>
  <path fill="#c7891f" d="m19 3h103c8.86 0 16 7.136 16 16v153c0 8.86-7.14 16-16 16h-103c-8.864 0-16-7.14-16-16v-153c0-8.864 7.136-16 16-16z"/>
  <path fill="url(#a)" d="m18 2h103c8.86 0 16 7.136 16 16v153c0 8.86-7.14 16-16 16h-103c-8.864 0-16-7.14-16-16v-153c0-8.864 7.136-16 16-16z"/>
 </g>
 <g>
  <path d="m25.079 36.775h-10.001l-1.579 5.465h-6.429l9.187-30h7.626l9.187 30h-6.429l-1.562-5.465m-8.406-5.566h6.794l-3.389-11.936-3.405 11.936"/>
  <path d="m113.61 152.1h10l1.58-5.47h6.43l-9.19 30h-7.62l-9.19-30h6.43l1.56 5.47m8.41 5.56h-6.8l3.39 11.94 3.41-11.94"/>
  <g fill-rule="evenodd">
   <path d="m20.527 48.665c-2.666 0-4.83 3.264-4.83 7.286 0 3.426 4.392 9.191 4.222 11.929-1.41.783-5.767-6.437-8.019-6.437-2.6665 0-4.83 3.263-4.83 7.285 0 4.023 2.1635 7.286 4.83 7.286 2.312 0 6.276-7.214 8.019-6.563l-2.929 12.874 7.024-.042s-3.077-12.481-3.081-12.776h.055v.014c1.707-.640 5.806 6.632 8.102 6.632 2.667 0 4.83-3.263 4.83-7.286 0-4.022-2.163-7.285-4.83-7.285-2.242 0-6.308 7.1-8.093 6.368.025-2.806 4.36-8.577 4.36-11.999 0-4.022-2.163-7.286-4.83-7.286z" sodipodi:nodetypes="cscsssccccccssscsc"/>
   <path d="m117.42 139.96c2.66 0 4.83-3.26 4.83-7.28 0-3.43-4.39-9.19-4.22-11.93 1.41-.79 5.76 6.43 8.02 6.43 2.66 0 4.83-3.26 4.83-7.28s-2.17-7.29-4.83-7.29c-2.32 0-6.28 7.22-8.02 6.57l2.93-12.88-7.03.04s3.08 12.49 3.08 12.78h-.05v-.01c-1.71.64-5.81-6.64-8.1-6.64-2.67 0-4.83 3.27-4.83 7.29s2.16 7.29 4.83 7.29c2.24 0 6.3-7.1 8.09-6.37-.03 2.8-4.36 8.57-4.36 12 0 4.02 2.16 7.28 4.83 7.28z" sodipodi:nodetypes="cscsssccccccssscsc"/>
   <path d="m69.529 59.05c-5.726 0-10.372 7.013-10.372 15.656 0 7.363 9.432 19.751 9.066 25.634-3.029 1.68-12.385-13.833-17.221-13.833-5.726 0-10.372 7.013-10.372 15.653 0 8.65 4.646 15.66 10.372 15.66 4.966 0 13.477-15.5 17.221-14.1l-6.29 27.66 15.083-.09s-6.608-26.82-6.616-27.45h.119v.03c3.666-1.38 12.468 14.25 17.399 14.25 5.726 0 10.372-7.02 10.372-15.66 0-8.641-4.646-15.654-10.372-15.654-4.816 0-13.546 15.254-17.379 13.684.054-6.029 9.362-18.429 9.362-25.784 0-8.643-4.646-15.656-10.372-15.656z" sodipodi:nodetypes="cscsssccccccssscsc"/>
  </g>
 </g>
</svg>
